X: 153
T: Old Man and Old Woman
C: R-76
M: C|
Z: Transcribed to abc by Mary Lou Knack
R: reel
K: G
dB/c/| "G"dedB GBdB| "D7"cdcB A2g2| "D"fgfe dfaf| "G"gbge d2Bc|
       "G"dedB GBdB| "D7"cdcB A2g2| "D"fgfe dfaf| "G"gfga g2:|
|:\
dB/c/| "G"dg2g g2Bc| "D7"df2f f2AB| "C"ce2e e2dB| "G"GABc d2Bc|
       "G"dg2g g2Bc| "D7"df2f f2AB| "C"ce2e e2dc| "G"BG"D"AF "G"G2:|
%%text 9/1/98.  From Don Messer
